Yaru++/actions/16/tool-measure.svg

<svg viewBox="0 0 24 24" xmlns="http://www.w3.org/2000/svg"><path d="m4 4v7h1 15v-1-5-1h-15zm1 1h1 1v2h1v-2h1v3h1v-3h1v2h1v-2h1v2h1v-2h1v3h1v-3h2 1v5h-14v-2zm2.7070312 9-3 3 3 3zm9.2929688 0v6l3-3z" fill="#808080"/></svg>

<svg xmlns="http://www.w3.org/2000/svg" viewBox="0 0 24 24">
 <defs>
  <style id="current-color-scheme" type="text/css">
   .ColorScheme-Text { color:#808080; }
  </style>
 </defs>
 <path fill="#808080" class="ColorScheme-Text" d="M 4 4 L 4 11 L 5 11 L 20 11 L 20 10 L 20 5 L 20 4 L 5 4 L 4 4 z M 5 5 L 6 5 L 7 5 L 7 7 L 8 7 L 8 5 L 9 5 L 9 8 L 10 8 L 10 5 L 11 5 L 11 7 L 12 7 L 12 5 L 13 5 L 13 7 L 14 7 L 14 5 L 15 5 L 15 8 L 16 8 L 16 5 L 18 5 L 19 5 L 19 10 L 5 10 L 5 8 L 5 5 z M 7.7070312 14 L 4.7070312 17 L 7.7070312 20 L 7.7070312 14 z M 17 14 L 17 20 L 20 17 L 17 14 z"/>
</svg>
